src/assets/icons/empty.svg

<svg width="184" height="115" viewBox="0 0 184 115" fill="none" xmlns="http://www.w3.org/2000/svg">
<path d="M92 115C142.81 115 184 106.057 184 95.0244C184 83.9922 142.81 75.0488 92 75.0488C41.1898 75.0488 0 83.9922 0 95.0244C0 106.057 41.1898 115 92 115Z" fill="#F5F5F5"/>
<path d="M158.125 37.2662L128.955 4.44342C127.555 2.20615 125.511 0.853516 123.358 0.853516H60.6424C58.489 0.853516 56.4449 2.20615 55.0447 4.44056L25.875 37.2691V63.634H158.125V37.2662Z" stroke="#D9D9D9"/>
<path d="M119.637 46.3152C119.637 41.7351 122.495 37.954 126.04 37.9512H158.125V89.708C158.125 95.7663 154.33 100.732 149.644 100.732H34.3562C29.67 100.732 25.875 95.7634 25.875 89.708V37.9512H57.96C61.5049 37.9512 64.3626 41.7266 64.3626 46.3067V46.3695C64.3626 50.9496 67.252 54.6479 70.794 54.6479H113.206C116.748 54.6479 119.637 50.9153 119.637 46.3352V46.3152Z" fill="#FAFAFA" stroke="#D9D9D9"/>
</svg>

<svg width="184" height="115" fill="none" xmlns="http://www.w3.org/2000/svg"><path d="M92 115c50.81 0 92-8.943 92-19.976 0-11.032-41.19-19.975-92-19.975S0 83.992 0 95.024C0 106.057 41.19 115 92 115Z" fill="#F5F5F5"/><path d="m158.125 37.266-29.17-32.823c-1.4-2.237-3.444-3.59-5.597-3.59H60.642c-2.153 0-4.197 1.353-5.597 3.588l-29.17 32.828v26.365h132.25V37.266Z" stroke="#D9D9D9"/><path d="M119.637 46.315c0-4.58 2.858-8.361 6.403-8.364h32.085v51.757c0 6.058-3.795 11.024-8.481 11.024H34.356c-4.686 0-8.481-4.969-8.481-11.024V37.951H57.96c3.545 0 6.403 3.776 6.403 8.356v.063c0 4.58 2.889 8.278 6.431 8.278h42.412c3.542 0 6.431-3.733 6.431-8.313v-.02Z" fill="#FAFAFA" stroke="#D9D9D9"/></svg>
